src/assets/icons/stroke/underline.svg

<svg width="1em" height="1em" viewBox="0 0 24 24" fill="none" xmlns="http://www.w3.org/2000/svg">
<path d="M19 20V22H5V20H19ZM16 13.215C15.9671 13.875 15.7711 14.5165 15.4297 15.0823C15.0883 15.6481 14.6121 16.1205 14.0435 16.4572C13.475 16.794 12.8318 16.9847 12.1716 17.0122C11.5114 17.0397 10.8546 16.9033 10.26 16.615C9.57464 16.3185 8.99341 15.8241 8.59077 15.1952C8.18813 14.5663 7.98242 13.8315 8 13.085V5.005H6V13.215C6.03383 14.1564 6.28885 15.0766 6.74442 15.9012C7.19998 16.7257 7.84329 17.4314 8.62227 17.9611C9.40125 18.4908 10.294 18.8296 11.2283 18.9502C12.1625 19.0707 13.1121 18.9696 14 18.655C15.1811 18.2613 16.2059 17.5012 16.9252 16.485C17.6446 15.4689 18.0211 14.2498 18 13.005V5.005H16V13.215ZM16 5H18H16ZM8 5H6H8Z" fill="currentColor"/>
</svg>

<svg xmlns="http://www.w3.org/2000/svg" width="1em" height="1em" fill="none"><path fill="currentColor" d="M19 20v2H5v-2h14Zm-3-6.8a4 4 0 0 1-5.7 3.4A3.8 3.8 0 0 1 8 13.1V5H6v8.2a6 6 0 0 0 8 5.5 5.9 5.9 0 0 0 4-5.7V5h-2v8.2ZM16 5h2-2ZM8 5H6h2Z"/></svg>
